study-summer/winter/build/img/facebook-hashtag.svg

<svg width="320" height="30" viewBox="0 0 320 30" fill="none" xmlns="http://www.w3.org/2000/svg">
<path d="M42.125 24L42.775 20.25H40.875V17.05H43.325L43.95 13.35H41.75V10.15H44.5L45.125 6.5H48.425L47.8 10.15H51.425L52.05 6.5H55.35L54.725 10.15H56.625V13.35H54.175L53.55 17.05H55.75V20.25H53L52.35 24H49.05L49.7 20.25H46.075L45.425 24H42.125ZM46.625 17.05H50.25L50.875 13.35H47.25L46.625 17.05ZM63.9049 24.25C61.7882 24.25 59.8715 23.575 58.1549 22.225L59.7799 19.725C61.2465 20.7917 62.6549 21.325 64.0049 21.325C65.0715 21.325 65.6049 20.975 65.6049 20.275C65.6049 20.1917 65.5882 20.1083 65.5549 20.025C65.5382 19.9417 65.4965 19.8667 65.4299 19.8C65.3632 19.7333 65.2882 19.675 65.2049 19.625C65.1382 19.5583 65.0382 19.5 64.9049 19.45C64.7882 19.3833 64.6799 19.3333 64.5799 19.3C64.4966 19.25 64.3715 19.2 64.2049 19.15C64.0382 19.0833 63.8965 19.0333 63.7799 19C63.6632 18.9667 63.5049 18.925 63.3049 18.875C63.1049 18.8083 62.9465 18.7583 62.8299 18.725C62.2632 18.5583 61.7799 18.3917 61.3799 18.225C60.9965 18.0417 60.5882 17.8 60.1549 17.5C59.7215 17.1833 59.3882 16.7917 59.1549 16.325C58.9382 15.8417 58.8299 15.2833 58.8299 14.65C58.8299 13.3333 59.2965 12.3 60.2299 11.55C61.1632 10.7833 62.3299 10.4 63.7299 10.4C65.5299 10.4 67.1966 10.9167 68.7299 11.95L67.2799 14.575C65.8632 13.7417 64.6549 13.325 63.6549 13.325C62.7215 13.325 62.2549 13.65 62.2549 14.3C62.2549 14.75 63.0215 15.2333 64.5549 15.75C64.7382 15.8167 64.8799 15.8667 64.9799 15.9C65.4299 16.05 65.8132 16.1917 66.1299 16.325C66.4466 16.4583 66.8049 16.6417 67.2049 16.875C67.6049 17.1083 67.9216 17.3583 68.1549 17.625C68.4049 17.875 68.6132 18.2 68.7799 18.6C68.9466 19 69.0299 19.4417 69.0299 19.925C69.0299 21.3583 68.5549 22.4417 67.6049 23.175C66.6715 23.8917 65.4382 24.25 63.9049 24.25ZM76.0346 24.225C74.7846 24.225 73.8179 23.925 73.1346 23.325C72.4679 22.7083 72.1346 21.6667 72.1346 20.2V13.85H70.5346V10.6H72.1346V7.175H75.9346V10.6H79.0846V13.85H75.9346V19.575C75.9346 20.4417 76.3429 20.875 77.1596 20.875C77.8262 20.875 78.4512 20.7167 79.0346 20.4V23.45C78.1679 23.9667 77.1679 24.225 76.0346 24.225ZM86.3355 24.25C84.9022 24.25 83.7855 23.8083 82.9855 22.925C82.1855 22.0417 81.7855 20.825 81.7855 19.275V10.6H85.5855V18.075C85.5855 18.9583 85.7855 19.6333 86.1855 20.1C86.5855 20.5667 87.1522 20.8 87.8855 20.8C88.6189 20.8 89.1939 20.5667 89.6105 20.1C90.0439 19.6333 90.2605 18.9583 90.2605 18.075V10.6H94.0605V24H90.2605V22.1C89.1439 23.5333 87.8355 24.25 86.3355 24.25ZM102.962 24.25C101.295 24.25 99.8617 23.625 98.6617 22.375C97.4617 21.125 96.8617 19.425 96.8617 17.275C96.8617 15.1417 97.4534 13.4583 98.6367 12.225C99.8367 10.975 101.278 10.35 102.962 10.35C104.628 10.35 106.02 11.0167 107.137 12.35V5.75H110.937V24H107.137V22.075C106.07 23.525 104.678 24.25 102.962 24.25ZM101.612 20C102.245 20.6833 103.02 21.025 103.937 21.025C104.853 21.025 105.62 20.6833 106.237 20C106.87 19.3 107.187 18.3917 107.187 17.275C107.187 16.1917 106.87 15.3083 106.237 14.625C105.62 13.925 104.853 13.575 103.937 13.575C103.02 13.575 102.245 13.925 101.612 14.625C100.978 15.3083 100.662 16.2083 100.662 17.325C100.662 18.4083 100.978 19.3 101.612 20ZM117.532 28.075C116.332 28.075 115.207 27.7667 114.157 27.15L115.432 24.4C116.015 24.75 116.557 24.925 117.057 24.925C117.657 24.925 118.099 24.6333 118.382 24.05L113.132 10.6H117.157L120.207 19.725L123.132 10.6H127.082L121.932 24.325C121.415 25.7083 120.832 26.675 120.182 27.225C119.532 27.7917 118.649 28.075 117.532 28.075ZM133.772 24.25C132.339 24.25 131.222 23.8083 130.422 22.925C129.622 22.0417 129.222 20.825 129.222 19.275V10.6H133.022V18.075C133.022 18.9583 133.222 19.6333 133.622 20.1C134.022 20.5667 134.589 20.8 135.322 20.8C136.055 20.8 136.63 20.5667 137.047 20.1C137.48 19.6333 137.697 18.9583 137.697 18.075V10.6H141.497V24H137.697V22.1C136.58 23.5333 135.272 24.25 133.772 24.25ZM148.698 24.25C147.382 24.25 146.282 23.8833 145.398 23.15C144.532 22.4167 144.098 21.4 144.098 20.1C144.098 18.6833 144.582 17.6167 145.548 16.9C146.532 16.1833 147.848 15.825 149.498 15.825C150.615 15.825 151.707 16.0083 152.773 16.375V16.15C152.773 14.5167 151.815 13.7 149.898 13.7C148.748 13.7 147.515 13.9417 146.198 14.425L145.248 11.525C146.882 10.8083 148.615 10.45 150.448 10.45C152.465 10.45 153.973 10.95 154.973 11.95C155.94 12.9167 156.423 14.3417 156.423 16.225V24H152.748V22.55C151.732 23.6833 150.382 24.25 148.698 24.25ZM149.848 21.625C150.732 21.625 151.448 21.4083 151.998 20.975C152.548 20.525 152.823 19.9583 152.823 19.275V18.6C152.107 18.2667 151.298 18.1 150.398 18.1C149.565 18.1 148.915 18.2667 148.448 18.6C147.998 18.9167 147.773 19.3833 147.773 20C147.773 20.5 147.965 20.9 148.348 21.2C148.732 21.4833 149.232 21.625 149.848 21.625ZM162.23 24.1L158.105 10.6H161.955L164.105 18.725L166.63 10.55H169.905L172.455 18.75L174.655 10.6H178.43L174.255 24.1H170.83L168.255 15.875L165.63 24.1H162.23ZM180.813 9.125V5.75H184.813V9.125H180.813ZM180.913 24V10.6H184.713V24H180.913ZM188.282 24V10.6H192.082V12.5C193.199 11.0667 194.507 10.35 196.007 10.35C197.44 10.35 198.557 10.7917 199.357 11.675C200.157 12.5583 200.557 13.775 200.557 15.325V24H196.757V16.525C196.757 15.6417 196.557 14.9667 196.157 14.5C195.757 14.0333 195.19 13.8 194.457 13.8C193.724 13.8 193.14 14.0333 192.707 14.5C192.29 14.9667 192.082 15.6417 192.082 16.525V24H188.282ZM208.383 24.225C207.133 24.225 206.167 23.925 205.483 23.325C204.817 22.7083 204.483 21.6667 204.483 20.2V13.85H202.883V10.6H204.483V7.175H208.283V10.6H211.433V13.85H208.283V19.575C208.283 20.4417 208.692 20.875 209.508 20.875C210.175 20.875 210.8 20.7167 211.383 20.4V23.45C210.517 23.9667 209.517 24.225 208.383 24.225ZM220.218 24.3C218.185 24.3 216.51 23.6583 215.193 22.375C213.876 21.075 213.218 19.3917 213.218 17.325C213.218 15.375 213.843 13.725 215.093 12.375C216.343 11.025 217.926 10.35 219.843 10.35C221.96 10.35 223.576 11.05 224.693 12.45C225.81 13.85 226.368 15.575 226.368 17.625C226.368 17.825 226.351 18.1583 226.318 18.625H216.993C217.176 19.475 217.551 20.125 218.118 20.575C218.685 21.025 219.401 21.25 220.268 21.25C221.451 21.25 222.535 20.7917 223.518 19.875L225.693 21.8C224.343 23.4667 222.518 24.3 220.218 24.3ZM216.943 16.25H222.668C222.551 15.3833 222.243 14.6917 221.743 14.175C221.26 13.6583 220.626 13.4 219.843 13.4C219.076 13.4 218.435 13.6583 217.918 14.175C217.418 14.675 217.093 15.3667 216.943 16.25ZM229.2 24V10.6H233V13.3C233.867 11.25 235.292 10.2667 237.275 10.35V14.325H237.075C235.775 14.325 234.767 14.725 234.05 15.525C233.35 16.3083 233 17.4833 233 19.05V24H229.2ZM239.174 24V20.95L244.999 16.175C246.149 15.225 246.941 14.4667 247.374 13.9C247.808 13.3167 248.024 12.675 248.024 11.975C248.024 11.2583 247.808 10.7 247.374 10.3C246.941 9.9 246.374 9.7 245.674 9.7C245.024 9.7 244.433 9.88333 243.899 10.25C243.383 10.6 242.783 11.2 242.099 12.05L239.399 9.875C240.316 8.625 241.258 7.70833 242.224 7.125C243.208 6.54167 244.441 6.25 245.924 6.25C247.741 6.25 249.199 6.75 250.299 7.75C251.399 8.73333 251.949 10.05 251.949 11.7C251.949 12.65 251.766 13.5083 251.399 14.275C251.033 15.025 250.558 15.6917 249.974 16.275C249.391 16.8417 248.516 17.575 247.349 18.475L244.499 20.675H252.124V24H239.174ZM268.25 21.725C266.8 23.4417 264.925 24.3 262.625 24.3C260.325 24.3 258.459 23.4417 257.025 21.725C255.592 20.0083 254.875 17.85 254.875 15.25C254.875 12.6667 255.6 10.5167 257.05 8.8C258.5 7.06667 260.375 6.2 262.675 6.2C264.959 6.2 266.817 7.05833 268.25 8.775C269.7 10.4917 270.425 12.65 270.425 15.25C270.425 17.8333 269.7 19.9917 268.25 21.725ZM259.875 19.25C260.592 20.3 261.525 20.825 262.675 20.825C263.825 20.825 264.742 20.3083 265.425 19.275C266.125 18.225 266.475 16.8833 266.475 15.25C266.475 13.65 266.117 12.325 265.4 11.275C264.684 10.2083 263.759 9.675 262.625 9.675C261.492 9.675 260.575 10.2 259.875 11.25C259.175 12.2833 258.825 13.6167 258.825 15.25C258.825 16.8667 259.175 18.2 259.875 19.25ZM276.115 24V10.275L273.065 11.025L272.265 7.875L277.29 6.375H279.915V24H276.115ZM289.762 24.3C287.595 24.3 285.679 23.6083 284.012 22.225L286.037 19.3C287.287 20.3 288.562 20.8 289.862 20.8C290.895 20.8 291.712 20.4417 292.312 19.725C292.912 19.0083 293.279 18.0417 293.412 16.825C292.479 17.625 291.295 18.025 289.862 18.025C287.945 18.025 286.42 17.525 285.287 16.525C284.17 15.5083 283.612 14.1083 283.612 12.325C283.612 10.5583 284.229 9.1 285.462 7.95C286.712 6.78333 288.32 6.2 290.287 6.2C291.437 6.2 292.395 6.35 293.162 6.65C293.945 6.95 294.67 7.43333 295.337 8.1C296.72 9.48333 297.412 11.7 297.412 14.75C297.412 17.65 296.745 19.9667 295.412 21.7C294.079 23.4333 292.195 24.3 289.762 24.3ZM288.262 14.1C288.812 14.5833 289.554 14.825 290.487 14.825C291.42 14.825 292.154 14.5833 292.687 14.1C293.22 13.6 293.487 12.9583 293.487 12.175C293.487 11.3917 293.212 10.75 292.662 10.25C292.112 9.75 291.362 9.5 290.412 9.5C289.479 9.5 288.745 9.75 288.212 10.25C287.695 10.7333 287.437 11.3833 287.437 12.2C287.437 12.9833 287.712 13.6167 288.262 14.1Z" fill="#475993"/>
<path d="M25.9574 0H4.0428C1.8102 0 0.000244141 1.80989 0.000244141 4.04256V25.9573C0.000244141 28.19 1.81013 29.9999 4.0428 29.9999H14.851L14.8694 19.2795H12.0843C11.7223 19.2795 11.4285 18.9869 11.4271 18.6249L11.4138 15.1693C11.4124 14.8054 11.707 14.5096 12.071 14.5096H14.851V11.1706C14.851 7.29576 17.2176 5.18587 20.6742 5.18587H23.5106C23.8735 5.18587 24.1678 5.48008 24.1678 5.84305V8.75684C24.1678 9.11967 23.8738 9.4138 23.511 9.41402L21.7703 9.41483C19.8905 9.41483 19.5265 10.3081 19.5265 11.619V14.5097H23.6571C24.0507 14.5097 24.3561 14.8534 24.3097 15.2442L23.9001 18.6998C23.8609 19.0305 23.5805 19.2797 23.2476 19.2797H19.5449L19.5265 30H25.9575C28.1901 30 30 28.1901 30 25.9575V4.04256C30 1.80989 28.1901 0 25.9574 0Z" fill="#475993"/>
</svg>

<svg xmlns="http://www.w3.org/2000/svg" width="320" height="30" fill="none"><path fill="#475993" d="M42.125 24l.65-3.75h-1.9v-3.2h2.45l.625-3.7h-2.2v-3.2h2.75l.625-3.65h3.3l-.625 3.65h3.625l.625-3.65h3.3l-.625 3.65h1.9v3.2h-2.45l-.625 3.7h2.2v3.2H53L52.35 24h-3.3l.65-3.75h-3.625l-.65 3.75h-3.3zm4.5-6.95h3.625l.625-3.7H47.25l-.625 3.7zm17.28 7.2c-2.117 0-4.034-.675-5.75-2.025l1.625-2.5c1.466 1.067 2.875 1.6 4.225 1.6 1.067 0 1.6-.35 1.6-1.05a.67.67 0 00-.05-.25.437.437 0 00-.125-.225 1.163 1.163 0 00-.225-.175.838.838 0 00-.3-.175 1.828 1.828 0 00-.325-.15c-.083-.05-.209-.1-.375-.15a4.528 4.528 0 00-.425-.15 15.66 15.66 0 00-.475-.125c-.2-.067-.358-.117-.475-.15a14.355 14.355 0 01-1.45-.5 8.992 8.992 0 01-1.225-.725 3.226 3.226 0 01-1-1.175c-.217-.483-.325-1.042-.325-1.675 0-1.317.467-2.35 1.4-3.1.933-.767 2.1-1.15 3.5-1.15 1.8 0 3.467.517 5 1.55l-1.45 2.625c-1.417-.833-2.625-1.25-3.625-1.25-.934 0-1.4.325-1.4.975 0 .45.767.933 2.3 1.45.183.067.325.117.425.15.45.15.833.292 1.15.425.317.133.675.317 1.075.55.4.233.717.483.95.75.25.25.458.575.625.975.167.4.25.842.25 1.325 0 1.433-.475 2.517-1.425 3.25-.934.717-2.167 1.075-3.7 1.075zm12.13-.025c-1.25 0-2.217-.3-2.9-.9-.667-.617-1-1.658-1-3.125v-6.35h-1.6V10.6h1.6V7.175h3.8V10.6h3.15v3.25h-3.15v5.725c0 .867.408 1.3 1.225 1.3a3.87 3.87 0 001.875-.475v3.05c-.867.517-1.867.775-3 .775zm10.3.025c-1.433 0-2.55-.442-3.35-1.325-.8-.883-1.2-2.1-1.2-3.65V10.6h3.8v7.475c0 .883.2 1.558.6 2.025.4.467.967.7 1.7.7.734 0 1.309-.233 1.725-.7.434-.467.65-1.142.65-2.025V10.6h3.8V24h-3.8v-1.9c-1.116 1.433-2.425 2.15-3.925 2.15zm16.627 0c-1.667 0-3.1-.625-4.3-1.875-1.2-1.25-1.8-2.95-1.8-5.1 0-2.133.591-3.817 1.775-5.05 1.2-1.25 2.641-1.875 4.325-1.875 1.666 0 3.058.667 4.175 2v-6.6h3.8V24h-3.8v-1.925c-1.067 1.45-2.459 2.175-4.175 2.175zm-1.35-4.25c.633.683 1.408 1.025 2.325 1.025.916 0 1.683-.342 2.3-1.025.633-.7.95-1.608.95-2.725 0-1.083-.317-1.967-.95-2.65-.617-.7-1.384-1.05-2.3-1.05-.917 0-1.692.35-2.325 1.05-.634.683-.95 1.583-.95 2.7 0 1.083.316 1.975.95 2.675zm15.92 8.075a6.55 6.55 0 01-3.375-.925l1.275-2.75c.583.35 1.125.525 1.625.525.6 0 1.042-.292 1.325-.875l-5.25-13.45h4.025l3.05 9.125 2.925-9.125h3.95l-5.15 13.725c-.517 1.383-1.1 2.35-1.75 2.9-.65.567-1.533.85-2.65.85zm16.24-3.825c-1.433 0-2.55-.442-3.35-1.325-.8-.883-1.2-2.1-1.2-3.65V10.6h3.8v7.475c0 .883.2 1.558.6 2.025.4.467.967.7 1.7.7s1.308-.233 1.725-.7c.433-.467.65-1.142.65-2.025V10.6h3.8V24h-3.8v-1.9c-1.117 1.433-2.425 2.15-3.925 2.15zm14.926 0c-1.316 0-2.416-.367-3.3-1.1-.866-.733-1.3-1.75-1.3-3.05 0-1.417.484-2.483 1.45-3.2.984-.717 2.3-1.075 3.95-1.075 1.117 0 2.209.183 3.275.55v-.225c0-1.633-.958-2.45-2.875-2.45-1.15 0-2.383.242-3.7.725l-.95-2.9a12.803 12.803 0 015.2-1.075c2.017 0 3.525.5 4.525 1.5.967.967 1.45 2.392 1.45 4.275V24h-3.675v-1.45c-1.016 1.133-2.366 1.7-4.05 1.7zm1.15-2.625c.884 0 1.6-.217 2.15-.65.55-.45.825-1.017.825-1.7V18.6c-.716-.333-1.525-.5-2.425-.5-.833 0-1.483.167-1.95.5-.45.317-.675.783-.675 1.4 0 .5.192.9.575 1.2.384.283.884.425 1.5.425zm14.545 2.625c-2.117 0-4.033-.675-5.75-2.025l1.625-2.5c1.467 1.067 2.875 1.6 4.225 1.6 1.067 0 1.6-.35 1.6-1.05a.675.675 0 00-.05-.25.436.436 0 00-.125-.225 1.182 1.182 0 00-.225-.175.843.843 0 00-.3-.175 1.838 1.838 0 00-.325-.15c-.083-.05-.208-.1-.375-.15a4.518 4.518 0 00-.425-.15 15.903 15.903 0 00-.475-.125c-.2-.067-.358-.117-.475-.15a14.329 14.329 0 01-1.45-.5 8.998 8.998 0 01-1.225-.725 3.227 3.227 0 01-1-1.175c-.217-.483-.325-1.042-.325-1.675 0-1.317.467-2.35 1.4-3.1.933-.767 2.1-1.15 3.5-1.15 1.8 0 3.467.517 5 1.55l-1.45 2.625c-1.417-.833-2.625-1.25-3.625-1.25-.933 0-1.4.325-1.4.975 0 .45.767.933 2.3 1.45.183.067.325.117.425.15.45.15.833.292 1.15.425.317.133.675.317 1.075.55.4.233.717.483.95.75.25.25.458.575.625.975.167.4.25.842.25 1.325 0 1.433-.475 2.517-1.425 3.25-.933.717-2.167 1.075-3.7 1.075zm12.299 0c-1.433 0-2.55-.442-3.35-1.325-.8-.883-1.2-2.1-1.2-3.65V10.6h3.8v7.475c0 .883.2 1.558.6 2.025.4.467.967.7 1.7.7s1.308-.233 1.725-.7c.433-.467.65-1.142.65-2.025V10.6h3.8V24h-3.8v-1.9c-1.117 1.433-2.425 2.15-3.925 2.15zm11.126-.25V10.6h3.8v1.9c1.117-1.433 2.433-2.15 3.95-2.15 1.783 0 3.042.708 3.775 2.125 1.217-1.417 2.683-2.125 4.4-2.125 1.433 0 2.542.425 3.325 1.275.8.833 1.2 2.05 1.2 3.65V24h-3.8v-7.475c0-1.817-.742-2.725-2.225-2.725-.717 0-1.283.233-1.7.7-.4.467-.6 1.142-.6 2.025V24h-3.8v-7.475c0-1.817-.742-2.725-2.225-2.725-.717 0-1.283.233-1.7.7-.4.467-.6 1.142-.6 2.025V24h-3.8zm23.755 0V10.6h3.8v1.9c1.117-1.433 2.433-2.15 3.95-2.15 1.783 0 3.042.708 3.775 2.125 1.217-1.417 2.683-2.125 4.4-2.125 1.433 0 2.542.425 3.325 1.275.8.833 1.2 2.05 1.2 3.65V24h-3.8v-7.475c0-1.817-.742-2.725-2.225-2.725-.717 0-1.283.233-1.7.7-.4.467-.6 1.142-.6 2.025V24h-3.8v-7.475c0-1.817-.742-2.725-2.225-2.725-.717 0-1.283.233-1.7.7-.4.467-.6 1.142-.6 2.025V24h-3.8zm30.105.3c-2.033 0-3.708-.642-5.025-1.925-1.317-1.3-1.975-2.983-1.975-5.05 0-1.95.625-3.6 1.875-4.95s2.833-2.025 4.75-2.025c2.117 0 3.733.7 4.85 2.1 1.117 1.4 1.675 3.125 1.675 5.175 0 .2-.017.533-.05 1h-9.325c.183.85.558 1.5 1.125 1.95.567.45 1.283.675 2.15.675 1.183 0 2.267-.458 3.25-1.375l2.175 1.925c-1.35 1.667-3.175 2.5-5.475 2.5zm-3.275-8.05h5.725c-.117-.867-.425-1.558-.925-2.075-.483-.517-1.117-.775-1.9-.775-.767 0-1.408.258-1.925.775-.5.5-.825 1.192-.975 2.075zM250.66 24V10.6h3.8v2.7c.867-2.05 2.292-3.033 4.275-2.95v3.975h-.2c-1.3 0-2.308.4-3.025 1.2-.7.783-1.05 1.958-1.05 3.525V24h-3.8zm9.974 0v-3.05l5.825-4.775c1.15-.95 1.942-1.708 2.375-2.275.434-.583.65-1.225.65-1.925 0-.717-.216-1.275-.65-1.675-.433-.4-1-.6-1.7-.6-.65 0-1.241.183-1.775.55-.516.35-1.116.95-1.8 1.8l-2.7-2.175c.917-1.25 1.859-2.167 2.825-2.75.984-.583 2.217-.875 3.7-.875 1.817 0 3.275.5 4.375 1.5 1.1.983 1.65 2.3 1.65 3.95 0 .95-.183 1.808-.55 2.575a7.38 7.38 0 01-1.425 2c-.583.567-1.458 1.3-2.625 2.2l-2.85 2.2h7.625V24h-12.95zm29.076-2.275c-1.45 1.717-3.325 2.575-5.625 2.575s-4.166-.858-5.6-2.575c-1.433-1.717-2.15-3.875-2.15-6.475 0-2.583.725-4.733 2.175-6.45 1.45-1.733 3.325-2.6 5.625-2.6 2.284 0 4.142.858 5.575 2.575 1.45 1.717 2.175 3.875 2.175 6.475 0 2.583-.725 4.742-2.175 6.475zm-8.375-2.475c.717 1.05 1.65 1.575 2.8 1.575s2.067-.517 2.75-1.55c.7-1.05 1.05-2.392 1.05-4.025 0-1.6-.358-2.925-1.075-3.975-.716-1.067-1.641-1.6-2.775-1.6-1.133 0-2.05.525-2.75 1.575-.7 1.033-1.05 2.367-1.05 4 0 1.617.35 2.95 1.05 4zm16.24 4.75V10.275l-3.05.75-.8-3.15 5.025-1.5h2.625V24h-3.8zm13.972.25c-1.967 0-3.583-.467-4.85-1.4-1.267-.933-1.9-2.167-1.9-3.7 0-1.95.942-3.358 2.825-4.225-1.483-.9-2.225-2.192-2.225-3.875 0-1.367.567-2.508 1.7-3.425 1.15-.917 2.633-1.375 4.45-1.375 1.833 0 3.317.458 4.45 1.375s1.7 2.075 1.7 3.475c0 1.65-.742 2.925-2.225 3.825.95.5 1.658 1.067 2.125 1.7.467.633.7 1.458.7 2.475 0 1.583-.633 2.842-1.9 3.775-1.25.917-2.867 1.375-4.85 1.375zm-1.825-11.2c.467.4 1.075.6 1.825.6s1.35-.2 1.8-.6c.467-.4.7-.925.7-1.575 0-.567-.233-1.05-.7-1.45-.45-.4-1.05-.6-1.8-.6-.767 0-1.375.2-1.825.6-.45.4-.675.892-.675 1.475 0 .617.225 1.133.675 1.55zm1.825 8.025c.933 0 1.667-.208 2.2-.625.55-.417.825-.95.825-1.6 0-.667-.283-1.192-.85-1.575-.55-.383-1.275-.575-2.175-.575-.9 0-1.633.2-2.2.6-.55.383-.825.917-.825 1.6 0 .617.275 1.133.825 1.55.55.417 1.283.625 2.2.625zM25.957 0H4.043A4.043 4.043 0 000 4.043v21.914A4.043 4.043 0 004.043 30H14.85l.018-10.72h-2.785a.657.657 0 01-.657-.655l-.013-3.456a.657.657 0 01.657-.66h2.78v-3.338c0-3.875 2.366-5.985 5.823-5.985h2.836c.363 0 .658.294.658.657v2.914a.657.657 0 01-.657.657h-1.74c-1.88 0-2.245.894-2.245 2.205v2.89h4.13c.395 0 .7.344.653.735L23.9 18.7a.656.656 0 01-.652.58h-3.702L19.526 30h6.431A4.043 4.043 0 0030 25.957V4.043A4.043 4.043 0 0025.957 0z"/></svg>
